X:15061
T:Scottiche des Causses
R:Scottiche
C:trad
O:France
M:4/4
L:1/8
Q:1/4=110
K:G
D>E F>G A2A2|G>F G>BD2D2|D>E F>G A>c B>A|1G>F D>F G2D2:|2G>F D>F G4|
|:B>d e>d B>d c>B|A>c B>A B2G2|B>d e>d B>d c>B|A>c B>A G4:||
